svg/u1f34e.svg

<svg viewBox="0 0 128 128" xmlns="http://www.w3.org/2000/svg">
  <path d="M45.43,68.14l-5.45-13.51l0.15-21.87c0,0,14.68-2.2,22.39-3.26s23.04-7.52,37.02-1.33 c15.88,7.03,24.3,23.3,20.06,48.1s-22.83,44.87-39.57,47.03c-8.29,1.07-9.77-2.15-16.12-1.69c-5.14,0.37-4.86,3.04-13.63,2.59 c-8.77-0.45-16.21-3.71-20.59-9.15S45.43,68.14,45.43,68.14z" fill="#DC0D28"/>
  <path d="M21.23,36.99c-12.57,10.5-18.5,32.63-8.47,56.25c8.92,21.02,23.17,27.03,23.17,27.03 s24.92-1.63,42.31-11.01s34.18-25.71,34.18-47.18s-11.19-28.73-12.4-29.03c-1.21-0.3-6.2,2.87-11.8,3.02 c-5.6,0.15-9.98-1.21-9.98-1.21l-17.69,5.9l-16.54-3.86c0,0-0.53-2.31,1.26-3.25c3.72-1.94,11.49,1.36,14.67,1.21s5.9-4.39,5.9-4.39 s-7.41-0.76-9.98-1.36C53.29,28.53,35.9,24.74,21.23,36.99z" fill="#FF5117"/>
  <path d="M62.03,37.12c-4.58,0.21-16.86-4.1-17.97-0.73c-1.18,3.58,7.96,8.33,19.09,7.55 c11.61-0.81,18.84-7.23,17-10.69C78.32,29.79,70.79,36.71,62.03,37.12z" fill="#8D1D0A"/>
  <path d="M51.04,16.96c0,0-1.93-0.1-2.95-0.51c-1.02-0.41-2.46-0.38-2.34-2.14c0.2-2.95,3.98-5.98,4.89-6.52 c1.73-1.02,4.76-0.74,5.91,0c1.43,0.92,0.71,4.28,0.71,4.28s5.09,7.64,5.8,12.32c0.65,4.27,3.31,16.73-0.71,17.51 c-3.67,0.71-2.14-8.86-4.17-13.54c-1.22-2.8-2.95-5.8-4.58-7.84C52.03,18.58,51.04,16.96,51.04,16.96z" fill="#513630"/>
  <path d="M105.41,5.05c0.41-0.71-0.41-1.43-3.77-1.53c-3.36-0.1-21.69-1.83-32.07,11.1 c-7.46,9.29-6.31,17.21-6.31,17.21l6.82,0.31L105.41,5.05z" fill="#2F7C31"/>
  <path d="M82.9,17.77c6.17-4.26,22.6-13.54,22.6-13.54s0,2.34-1.02,4.38s-4.48,12.12-18.53,19.45 c-13.19,6.88-21.99,5.19-22.71,3.97C62.54,30.81,72.72,24.8,82.9,17.77z" fill="#709F19"/>
  <path d="M37.6,39.97c-2.73-3.93-9.34-2.82-15.27,5.09c-7.64,10.18-7.23,23.72-2.04,24.54 c5.15,0.81,0.61-4.38,8.55-14.66C34.92,47.07,41.06,44.96,37.6,39.97z" fill="#FFD2B1"/>
</svg>

<svg viewBox="0 0 128 128" xmlns="http://www.w3.org/2000/svg">
  <defs/>
  <path d="M45.43,68.14 L39.98,54.63 L40.13,32.76 C40.13,32.76 54.81,30.56 62.52,29.5 C70.23,28.44 85.56,21.98 99.54,28.17 C115.42,35.2 123.84,51.47 119.6,76.27 C115.36,101.07 96.77,121.14 80.03,123.3 C71.74,124.37 70.26,121.15 63.91,121.61 C58.77,121.98 59.05,124.65 50.28,124.2 C41.51,123.75 34.07,120.49 29.69,115.05 C25.31,109.61 45.43,68.14 45.43,68.14 Z" fill="#DC0D28"/>
  <path d="M21.23,36.99 C8.66,47.49 2.73,69.62 12.76,93.24 C21.68,114.26 35.93,120.27 35.93,120.27 C35.93,120.27 60.85,118.64 78.24,109.26 C95.63,99.88 112.42,83.55 112.42,62.08 C112.42,40.61 101.23,33.35 100.02,33.05 C98.81,32.75 93.82,35.92 88.22,36.07 C82.62,36.22 78.24,34.86 78.24,34.86 L60.55,40.76 L44.01,36.9 C44.01,36.9 43.48,34.59 45.27,33.65 C48.99,31.71 56.76,35.01 59.94,34.86 C63.12,34.71 65.84,30.47 65.84,30.47 C65.84,30.47 58.43,29.71 55.86,29.11 C53.29,28.53 35.9,24.74 21.23,36.99 Z" fill="#FF5117"/>
  <path d="M62.03,37.12 C57.45,37.33 45.17,33.02 44.06,36.39 C42.88,39.97 52.02,44.72 63.15,43.94 C74.76,43.13 81.99,36.71 80.15,33.25 C78.32,29.79 70.79,36.71 62.03,37.12 Z" fill="#8D1D0A"/>
  <path d="M51.04,16.96 C51.04,16.96 49.11,16.86 48.09,16.45 C47.07,16.04 45.63,16.07 45.75,14.31 C45.95,11.36 49.73,8.33 50.64,7.79 C52.37,6.77 55.4,7.05 56.55,7.79 C57.98,8.71 57.26,12.07 57.26,12.07 C57.26,12.07 62.35,19.71 63.06,24.39 C63.71,28.66 66.37,41.12 62.35,41.9 C58.68,42.61 60.21,33.04 58.18,28.36 C56.96,25.56 55.23,22.56 53.6,20.52 C52.03,18.58 51.04,16.96 51.04,16.96 Z" fill="#513630"/>
  <path d="M105.41,5.05 C105.82,4.34 105,3.62 101.64,3.52 C98.28,3.42 79.95,1.69 69.57,14.62 C62.11,23.91 63.26,31.83 63.26,31.83 L70.08,32.14 L105.41,5.05 Z" fill="#2F7C31"/>
  <path d="M82.9,17.77 C89.07,13.51 105.5,4.23 105.5,4.23 C105.5,4.23 105.5,6.57 104.48,8.61 C103.46,10.65 100,20.73 85.95,28.06 C72.76,34.94 63.96,33.25 63.24,32.03 C62.54,30.81 72.72,24.8 82.9,17.77 Z" fill="#709F19"/>
  <path d="M37.6,39.97 C34.87,36.04 28.26,37.15 22.33,45.06 C14.69,55.24 15.1,68.78 20.29,69.6 C25.44,70.41 20.9,65.22 28.84,54.94 C34.92,47.07 41.06,44.96 37.6,39.97 Z" fill="#FFD2B1"/>
</svg>
